X:1004
T:Lady Jean Murray's Rant
P:Atholl House
C:D. Dow, c. 1775
R:Strathspey (8x32)
B:RSCDS 10-4
Z:Anselm Lingnau <anselm@strathspey.org>
M:4/4
L:1/8
K:D
d|"D"A<D F>D A<D B/A/G/F/|A<D F>D "A"C<E E>d|\
  "D"A<D F>D A>D d>A|"A"B/A/G/F/ A>A, "D"B,<D Dd|
  "D"A<D F>D A<D B/A/G/F/|A<D F>D "A"C<E E>d|\
  "D"A<D F>D A>D d>A|"A"B/A/G/F/ A>A, "D"B,<D D||
A|"D"d2 f/e/d/c/ d>A F<A|D>A B/A/G/F/ G<E "A7"E>F|\
  "D"d2 f/e/d A<d F>A|"G"B/c/d "A"c/d/e "D"A<d d>A|
  "D"d>A f<d "C"c>A g>e|"D"f>d A<d "A7"c<e e>g|\
  "D"f>d A<d "G"B>G E<G|"A7"F<D A>A, "D"B,<d d|]
